X: 1
T: Jeg er s\aa glad hver julekveld [G]
O: Norway
M: 6/8
L: 1/8
K: G
"D7"D \
| "G"[G2D2][GD] [BG]>[AF][GD] \
| "D7"[F2D2][GD] [A2D2]D \
| "D7"[A2D2][BD] [cE]>B[AF] \
| "G"[B3-G3-] [BG]z ||
"D7"D \
| "G"[G2D2][GD] "G7"[BG]>[AF][GD] \
| "C"[F2D2][EC] "Am"[c2E2][AE] \
| "G"[G2D2][GD] "D7"[FD]>E[FC] \
| "G"[G3-B,3-] [GB,]z |]
